openframe-frontend-core/src/components/icons-v2/brand-logos/discord.svg

<svg width="24" height="24" viewBox="0 0 24 24" fill="none" xmlns="http://www.w3.org/2000/svg">
<path d="M15.1647 2.88673C16.5506 3.09172 18.1118 3.45321 19.4171 4.26222C20.7732 5.10267 21.8231 6.41106 22.1388 8.37257L22.2267 8.86769C22.3235 9.37465 22.4454 9.91974 22.5739 10.5156C22.7413 11.2921 22.9146 12.1361 23.0207 12.9854C23.2294 14.657 23.2061 16.5561 22.171 18.1636C20.886 20.1592 18.8613 20.6226 17.3195 21.0786C16.8482 21.218 16.3398 21.0353 16.0656 20.6275L14.091 17.6904L14.0309 17.5908C13.7625 17.088 13.9139 16.4538 14.3971 16.1289C14.8808 15.8037 15.5256 15.9036 15.8898 16.3428L15.9586 16.4351L17.4674 18.6807C18.7705 18.2825 19.6489 17.926 20.2799 16.9463C20.879 16.016 20.9772 14.7771 20.7882 13.2637C20.6955 12.5209 20.5398 11.7609 20.3737 10.9902C20.2114 10.2375 20.0326 9.45018 19.9166 8.72999C19.7148 7.47609 19.0904 6.70743 18.2321 6.17531C17.5753 5.76823 16.7695 5.49612 15.8854 5.30372L15.654 6.45949C16.1036 6.60671 16.5476 6.77909 16.9796 6.98244C17.5413 7.24725 17.7817 7.91757 17.5172 8.47951C17.2525 9.0413 16.5822 9.28308 16.0202 9.01857C15.4032 8.72818 14.7589 8.50825 14.0998 8.35939C12.7202 8.04783 11.2796 8.0464 9.90005 8.35792C9.24084 8.50678 8.59674 8.72814 7.97964 9.01857L7.8727 9.06105C7.33497 9.25073 6.73086 9.0063 6.48257 8.47951C6.21807 7.91755 6.45844 7.24723 7.02017 6.98244L7.60171 6.72755C7.84631 6.62849 8.09475 6.54125 8.34438 6.45949L8.11294 5.30226C7.22933 5.49464 6.42422 5.76842 5.76772 6.17531C4.90943 6.70744 4.28502 7.47614 4.08315 8.72999C3.96722 9.45018 3.78841 10.2375 3.62612 10.9902C3.45998 11.7609 3.30434 12.5209 3.21157 13.2637C3.02262 14.7771 3.12084 16.016 3.71987 16.9463C4.35063 17.9257 5.22866 18.2827 6.53091 18.6807L8.04116 16.4351L8.11147 16.3428C8.47577 15.9042 9.1193 15.804 9.60268 16.1289C10.1183 16.4756 10.2555 17.1748 9.90884 17.6904L7.93423 20.6275C7.66001 21.0353 7.1516 21.218 6.68032 21.0786C5.235 20.6511 3.36473 20.2176 2.07778 18.521L1.82876 18.1636C0.793707 16.5561 0.770443 14.657 0.97915 12.9854C1.08519 12.1361 1.25854 11.2921 1.42593 10.5156C1.59725 9.72098 1.75725 9.01691 1.86099 8.37257L1.92983 8.01222C2.31029 6.24932 3.31148 5.05012 4.58266 4.26222C5.88792 3.45324 7.44925 3.09173 8.83511 2.88673L9.05483 2.87648C9.56033 2.90063 10.0006 3.26475 10.1037 3.77882L10.5402 5.9673C11.5087 5.84664 12.4896 5.84675 13.4582 5.9673L13.8961 3.77882L13.9606 3.56935C14.154 3.10151 14.6458 2.80999 15.1647 2.88673Z" fill="#888888"/>
<path d="M16.0209 15.4819C16.583 15.2175 17.2534 15.4589 17.5179 16.021C17.7824 16.5831 17.541 17.2535 16.9789 17.5181C14.0388 18.9018 10.616 18.988 7.61559 17.7774L7.02086 17.5181L6.91979 17.4639C6.43069 17.1703 6.23375 16.5482 6.4818 16.021C6.72977 15.4942 7.33426 15.2489 7.87193 15.438L7.97887 15.4819L8.45787 15.6914C10.8791 16.6682 13.6494 16.5981 16.0209 15.4819ZM8.14 10.8823C8.83356 10.9526 9.37486 11.5384 9.37486 12.2505C9.3746 13.0097 8.7586 13.6245 7.99938 13.6245C7.28787 13.6243 6.70335 13.084 6.63268 12.3911L6.62535 12.2505L6.63268 12.1099C6.7029 11.4165 7.28754 10.8753 7.99938 10.875L8.14 10.8823ZM16.141 10.8823C16.8341 10.953 17.3744 11.5388 17.3744 12.2505C17.3741 13.0095 16.7594 13.6243 16.0004 13.6245C15.2886 13.6245 14.7029 13.0842 14.6322 12.3911L14.6249 12.2505L14.6322 12.1099C14.7024 11.4163 15.2883 10.875 16.0004 10.875L16.141 10.8823Z" fill="#888888"/>
</svg>

<svg xmlns="http://www.w3.org/2000/svg" width="24" height="24" fill="none" viewBox="0 0 24 24">
  <path fill="#888" d="M15.165 2.887c1.386.205 2.947.566 4.252 1.375 1.356.84 2.406 2.15 2.722 4.11l.088.496c.096.507.218 1.052.347 1.648.167.776.34 1.62.447 2.47.208 1.671.185 3.57-.85 5.178-1.285 1.995-3.31 2.459-4.851 2.915a1.128 1.128 0 0 1-1.254-.451L14.09 17.69l-.06-.1a1.125 1.125 0 0 1 1.859-1.247l.069.092 1.508 2.246c1.303-.399 2.182-.755 2.813-1.735.599-.93.697-2.169.508-3.682-.093-.743-.248-1.503-.414-2.274-.163-.752-.341-1.54-.457-2.26-.202-1.254-.827-2.023-1.685-2.555-.657-.407-1.462-.679-2.347-.871l-.231 1.155c.45.148.894.32 1.326.523a1.125 1.125 0 0 1-.96 2.037 9.342 9.342 0 0 0-1.92-.66 9.553 9.553 0 0 0-4.2-.001c-.66.149-1.303.37-1.92.66l-.107.043a1.124 1.124 0 0 1-.853-2.079l.582-.254c.244-.1.493-.187.742-.269l-.231-1.157c-.884.193-1.689.466-2.345.873-.859.532-1.483 1.301-1.685 2.555-.116.72-.295 1.508-.457 2.26-.166.77-.322 1.53-.414 2.274-.19 1.513-.091 2.752.508 3.682.63.98 1.509 1.337 2.81 1.735l1.511-2.246.07-.092a1.124 1.124 0 0 1 1.8 1.347l-1.975 2.938c-.274.407-.782.59-1.254.45-1.445-.427-3.315-.86-4.602-2.557l-.25-.357C.795 16.556.77 14.657.98 12.985c.106-.849.28-1.693.447-2.47.171-.794.331-1.498.435-2.142l.069-.36c.38-1.764 1.381-2.963 2.653-3.75 1.305-.81 2.866-1.171 4.252-1.376l.22-.01c.505.024.946.388 1.049.902l.436 2.188c.969-.12 1.95-.12 2.918 0l.438-2.188.065-.21a1.126 1.126 0 0 1 1.204-.682Z"/>
  <path fill="#888" d="M16.02 15.482a1.125 1.125 0 0 1 .959 2.036 11.757 11.757 0 0 1-9.363.26l-.595-.26-.101-.054a1.125 1.125 0 0 1 .952-2.026l.107.044.479.21a9.507 9.507 0 0 0 7.563-.21Zm-7.88-4.6a1.375 1.375 0 1 1-1.507 1.51l-.008-.141.008-.141a1.375 1.375 0 0 1 1.366-1.235l.141.007Zm8.001 0a1.375 1.375 0 1 1-1.509 1.51l-.007-.141.007-.141A1.375 1.375 0 0 1 16 10.875l.141.007Z"/>
</svg>
